X:3289
T:Con McGinley's #2
M:4/4
L:1/8
S:Altan
K:A
AAGA FAEA|~A2Bc dfec|AAGA FAEc|dBGB ABcB|\
AAGA FAEA|~A2Bc dfed|ceAc dfBa|ga (3bag a2(3efg||\
aA ~A2agfe|dcBA GBBg|aA ~A2ceAc|dfec A2fg|\
afbf =gfef|=ged=c B=GGB|ceAc dfBa|ga (3bag afec||


